public/src/images/icons/users.svg

<svg width="15" height="10" viewBox="0 0 15 10" fill="none" xmlns="http://www.w3.org/2000/svg">
<path d="M9.88721 5.2832C10.9829 5.2832 11.9229 4.30029 11.9229 3.03271C11.9229 1.78125 10.9775 0.841309 9.88721 0.841309C8.7915 0.841309 7.84619 1.80273 7.84619 3.04346C7.84619 4.30029 8.78613 5.2832 9.88721 5.2832ZM4.02734 5.40137C4.97803 5.40137 5.7998 4.54199 5.7998 3.43555C5.7998 2.34521 4.97803 1.53418 4.02734 1.53418C3.07666 1.53418 2.24951 2.3667 2.24951 3.44629C2.24951 4.54199 3.07129 5.40137 4.02734 5.40137ZM1.20752 9.99365H5.04785C4.51074 9.22559 5.13916 7.68408 6.25098 6.82471C5.68701 6.44873 4.96191 6.1748 4.02197 6.1748C1.73926 6.1748 0.294434 7.86133 0.294434 9.25781C0.294434 9.73047 0.546875 9.99365 1.20752 9.99365ZM6.69678 9.99365H13.0669C13.8779 9.99365 14.1626 9.75732 14.1626 9.30615C14.1626 7.99561 12.519 6.19092 9.88184 6.19092C7.25 6.19092 5.60107 7.99561 5.60107 9.30615C5.60107 9.75732 5.88574 9.99365 6.69678 9.99365Z" fill="#9B9B9B"/>
</svg>

<svg width="15" height="10" fill="none" xmlns="http://www.w3.org/2000/svg"><path d="M9.887 5.283c1.096 0 2.036-.983 2.036-2.25 0-1.252-.946-2.192-2.036-2.192-1.096 0-2.04.962-2.04 2.202 0 1.257.94 2.24 2.04 2.24zm-5.86.118c.951 0 1.773-.859 1.773-1.965 0-1.09-.822-1.902-1.773-1.902-.95 0-1.777.833-1.777 1.912 0 1.096.821 1.955 1.777 1.955zm-2.82 4.593h3.84c-.536-.768.092-2.31 1.204-3.17-.564-.375-1.29-.65-2.229-.65-2.283 0-3.728 1.687-3.728 3.084 0 .472.253.736.914.736zm5.49 0h6.37c.81 0 1.096-.237 1.096-.688 0-1.31-1.644-3.115-4.281-3.115-2.632 0-4.28 1.805-4.28 3.115 0 .451.284.688 1.095.688z" fill="#9B9B9B"/></svg>
